img/service/google-adwords.svg

<?xml version="1.0" encoding="UTF-8"?>
<svg width="449px" height="449px" viewBox="0 0 449 449" version="1.1" xmlns="http://www.w3.org/2000/svg" xmlns:xlink="http://www.w3.org/1999/xlink">
    <!-- Generator: Sketch 41.2 (35397) - http://www.bohemiancoding.com/sketch -->
    <title>Slice</title>
    <desc>Created with Sketch.</desc>
    <defs></defs>
    <g id="Page-1" stroke="none" stroke-width="1" fill="none" fill-rule="evenodd">
        <g id="google-adwords">
            <g id="Layer_3">
                <g id="Group">
                    <path d="M339.804221,448.403066 L448.902622,448.421263 L448.793505,448.172566 L299.80693,0.808460526 L299.80693,431.358197 C309.936586,441.815618 324.05506,448.403066 339.804221,448.403066" id="Shape" fill="#0F9D59"></path>
                    <path d="M224.86202,224.296408 L287.125157,411.280434 C287.143343,411.316829 287.143343,411.353224 287.16153,411.419947 C289.87732,419.00825 294.266232,425.704882 299.752371,431.376395 L299.752371,0.838789474 L299.594758,0.414184211 L224.86202,224.296408 Z" id="Shape" fill="#0A6E3D"></path>
                    <path d="M150.165654,0.402052632 L150.129282,0.559763158 L150.074724,0.402052632 L0.924473167,448.190763 L0.81535658,448.421263 L109.913758,448.421263 C125.650794,448.421263 139.787454,441.864145 149.929235,431.327868 C155.397188,425.674553 159.7861,418.977921 162.501891,411.389618 C162.520077,411.316829 162.520077,411.280434 162.538263,411.280434 L299.625069,0.347460526 L150.129282,0.347460526 L150.129282,0.402052632 L150.165654,0.402052632 Z" id="Shape" fill="#4284F4"></path>
                </g>
            </g>
        </g>
    </g>
</svg>

<svg width="449" height="449" viewBox="0 0 449 449" xmlns="http://www.w3.org/2000/svg">
  <title>
    Slice
  </title>
  <g fill="none" fill-rule="evenodd">
    <path d="M339.804 448.403l109.1.018-.11-.247L299.807.808v430.55c10.13 10.458 24.248 17.045 39.997 17.045" fill="#0F9D59"/>
    <path d="M224.862 224.296l62.263 186.984c.018.037.018.073.037.14 2.715 7.588 7.104 14.285 12.59 19.956V.84l-.157-.426-74.733 223.882z" fill="#0A6E3D"/>
    <path d="M150.166.402l-.037.158-.055-.158L.925 448.192l-.11.23h109.1c15.736 0 29.872-6.558 40.014-17.094 5.467-5.653 9.856-12.35 12.572-19.938.018-.073.018-.11.036-.11L299.625.347H150.13v.055h.036z" fill="#4284F4"/>
  </g>
</svg>
